X:22
T:Jem of Aberdeen. JGi.022
S:Joshua Gibbons MS,1823,Tealby,Lincs.
M:2/4
L:1/8
Q:1/4=120
R:quick step
O:Tealby,Lincolnshire
Z:VMP/R.Greig, 2009
K:G
d|B>cBA|BGGG|A>BAB|cedc|B>cBA|BGGD|
Dedc|BGG2|B>cBG|FAd2|B>cBG|FA dA|
d>efA|B^cdB|A>BAG|FD Dd|d>edB|cAAB|
GEEA|F2Dd|d>edB|cAAB|GEFA|HD3d|
B>cBA|BGGG|dBBB|Hg3f|e>feg|dB HAG|AEEF|G3:|

